flaticon/pins-and-locations/placeholder-18.svg

<svg xmlns="http://www.w3.org/2000/svg" width="32" height="32" viewBox="0 0 24 24">
    <path d="M9.949219 4.988281C9.882812 4.871094 9.757812 4.800781 9.601562 4.800781 9.441406 4.800781 9.316406 4.871094 9.25 4.988281L7.71875 6.519531C7.558594 6.679688 7.558594 6.921875 7.71875 7.078125 7.878906 7.238281 8.121094 7.238281 8.28125 7.078125L9.199219 6.160156 9.199219 10.800781C9.199219 11.039062 9.359375 11.199219 9.601562 11.199219 9.839844 11.199219 10 11.039062 10 10.800781L10 6.160156 10.921875 7.078125C11 7.160156 11.078125 7.199219 11.199219 7.199219 11.320312 7.199219 11.398438 7.160156 11.480469 7.078125 11.640625 6.921875 11.640625 6.679688 11.480469 6.519531zM15.320312 8.921875L14.398438 9.839844 14.398438 5.199219C14.398438 4.960938 14.238281 4.800781 14 4.800781 13.761719 4.800781 13.601562 4.960938 13.601562 5.199219L13.601562 9.839844 12.679688 8.921875C12.519531 8.761719 12.28125 8.761719 12.121094 8.921875 11.960938 9.078125 11.960938 9.320312 12.121094 9.480469L13.652344 11.011719C13.71875 11.128906 13.839844 11.199219 14 11.199219 14.160156 11.199219 14.28125 11.128906 14.347656 11.011719L15.878906 9.480469C16.039062 9.320312 16.039062 9.078125 15.878906 8.921875 15.71875 8.761719 15.480469 8.761719 15.320312 8.921875zM15.320312 8.921875"/>
    <path d="M 12 0 C 7.601562 0 4 3.601562 4 8 C 4 10.160156 4.640625 11.480469 5.558594 13.28125 C 5.679688 13.558594 5.839844 13.839844 6 14.160156 C 8.238281 18.761719 11.640625 23.761719 11.679688 23.839844 C 11.761719 23.921875 11.878906 24 12 24 C 12.121094 24 12.238281 23.921875 12.320312 23.800781 C 12.359375 23.761719 15.761719 18.761719 18 14.160156 C 18.160156 13.839844 18.28125 13.558594 18.441406 13.28125 C 19.359375 11.480469 20 10.160156 20 8 C 20 3.601562 16.398438 0 12 0 Z M 17.71875 12.878906 C 17.601562 13.199219 17.441406 13.480469 17.28125 13.800781 C 15.480469 17.480469 12.921875 21.480469 12 22.839844 C 11.078125 21.480469 8.519531 17.519531 6.71875 13.800781 C 6.558594 13.519531 6.441406 13.199219 6.28125 12.921875 C 5.398438 11.160156 4.800781 9.960938 4.800781 8 C 4.800781 4.039062 8.039062 0.800781 12 0.800781 C 15.960938 0.800781 19.199219 4.039062 19.199219 8 C 19.199219 9.960938 18.601562 11.160156 17.71875 12.878906 Z M 17.71875 12.878906"/>
</svg>

<svg xmlns="http://www.w3.org/2000/svg" width="32" height="32" viewBox="0 0 24 24">
    <path d="M9.95 4.988a.383.383 0 0 0-.348-.187c-.16 0-.286.07-.352.187L7.719 6.52a.385.385 0 0 0 0 .558c.16.16.402.16.562 0L9.2 6.16v4.64c0 .24.16.4.403.4.238 0 .398-.16.398-.4V6.16l.922.918a.348.348 0 0 0 .277.121c.121 0 .2-.039.281-.12a.385.385 0 0 0 0-.56zm0 0M15.32 8.922l-.922.918V5.2c0-.24-.16-.4-.398-.4-.238 0-.398.16-.398.4v4.64l-.922-.918a.385.385 0 0 0-.559 0 .385.385 0 0 0 0 .558l1.531 1.532a.38.38 0 0 0 .348.187.38.38 0 0 0 .348-.187l1.53-1.532a.385.385 0 0 0 0-.558.385.385 0 0 0-.558 0zm0 0"/>
    <path d="M12 0C7.602 0 4 3.602 4 8c0 2.16.64 3.48 1.559 5.281.12.278.28.559.441.88 2.238 4.6 5.64 9.6 5.68 9.679.082.082.199.16.32.16s.238-.078.32-.2c.04-.038 3.442-5.038 5.68-9.64.16-.32.281-.601.441-.879C19.36 11.481 20 10.161 20 8c0-4.398-3.602-8-8-8zm5.719 12.879c-.117.32-.278.601-.438.922-1.8 3.68-4.36 7.68-5.281 9.039-.922-1.36-3.48-5.32-5.281-9.04-.16-.28-.278-.6-.438-.878C5.398 11.16 4.801 9.96 4.801 8 4.8 4.04 8.039.8 12 .8c3.96 0 7.2 3.24 7.2 7.2 0 1.96-.598 3.16-1.481 4.879zm0 0"/>
</svg>
